X:1
T:Let's go Boys, the Party's over
N:From the playing of fiddler Jimmy Triplett (Randolph County, W.Va.)
M:C|
L:1/8
R:Two-Step
Q:"Moderately Quick"
D: https://www.slippery-hill.com/recording/lets-go-boys-partys-over
Z:Transcribed by Andrew Kuntz
K:C
[d2e2]-|[e2e2][ee][ee] [e2e2][ee][ee]|[e2e2] c2 A2G2|+slide+[e2e2][ee][ee] [e2e2][ee][ee]|[e2e2] c2 A2G2|
e-ffg fe d2|B2 Bc BAG2|g2 ga gggg|{g}a2g2e2g2|
+slide+[e2e2][ee][ee] [e2e2][ee][ee]|[ee]d c2 A2G2|+slide+[e2e2][ee][ee] [e2e2][ee][ee]|[ee]d c2 A2G2|
f2 fg fe d2|B2 Bc BA G2|[M:2/4]A2 B2|[M:C|][E3c4][Ec][E2c2]:|
|:[d2e2]-|[e2e2][ee][ee] [ee]dc2|G2-G2 c3c-|A2 A2 ABcd|e2e2 f-e d2|
B2 Bc BA G2|g2 ga g2gg |a2 g2 e2 ge|
+slide+[e2e2][ee][ee] [e2e2][ee][ee]|[ee]d c2 A2G2|+slide+[e2e2][ee][ee] [e2e2][ee][ee]|[ee]d c2 A2G2|
e-ffg fe d2|B2 Bc BA G2|[M:2/4]A2 B2|[M:C|][E3c4][Ec][E2c2]:|

